(Generated By: Line Grinder Version: 01.04)
(Home Page: http://www.OfItselfSo.com/LineGrinder/LineGrinder.php)
(Date Generated: Monday, 01 July 2019 16:04)

(The Line Grinder software is released under the MIT License. There)
(is no warranty or guarantee that the GCode files it produces)
(are without error. You use it, and run its output code entirely)
(at your own risk. In particular: )

(THE LINE GRINDER SOFTWARE, AND THE OUTPUT CODE IT GENERATES, ARE )
(PROVIDED "AS IS", WITHOUT WARRANTY OF ANY KIND, EXPRESS OR )
(IMPLIED, INCLUDING BUT NOT LIMITED TO THE WARRANTIES OF )
(MERCHANTABILITY, FITNESS FOR A PARTICULAR PURPOSE AND )
(NONINFRINGEMENT. IN NO EVENT SHALL THE AUTHORS OR COPYRIGHT )
(HOLDERS BE LIABLE FOR ANY CLAIM, DAMAGES OR OTHER LIABILITY, )
(WHETHER IN AN ACTION OF CONTRACT, TORT OR OTHERWISE, ARISING )
(FROM, OUT OF OR IN CONNECTION WITH THE SOFTWARE OR ITS OUTPUT)
(OR FROM THE USE OR OTHER DEALINGS IN THE SOFTWARE. )

G21 (Use MilliMeters)
G90 (Set Absolute Coordinates)
G17 (XY plane selection)
G00 Z3
G00 X0 Y0
M03 (Start spindle)
G04 P1 (Pause to let the spindle start)
(ToolTable: Tool 1, Dia= 0.4)
(ToolTable: Tool 2, Dia= 0.5)
(ToolTable: Tool 3, Dia= 0.8)
(ToolTable: Tool 4, Dia= 0.95)
(ToolTable: Tool 5, Dia= 1)
(ToolTable: Tool 6, Dia= 1.1)
(ToolTable: Tool 7, Dia= 1.5)
M05
T1 (ToolChange, ToolNum: 1, Drill Dia:0.4)
M6
M03
G00 X0.052 Y-0.057
G01 Z-4 F100
G00 Z3
G00 X0.068 Y-0.069
G01 Z-4
G00 Z3
G00 X0.07 Y-0.064
G01 Z-4
G00 Z3
G00 X0.074 Y-0.064
G01 Z-4
G00 Z3
G00 X0.119 Y-0.061
G01 Z-4
G00 Z3
G00 X0.123 Y-0.066
G01 Z-4
G00 Z3
G00 X0.123 Y-0.07
G01 Z-4
G00 Z3
G00 X0.127 Y-0.065
G01 Z-4
G00 Z3
G00 X0.127 Y-0.07
G01 Z-4
G00 Z3
G00 X0.134 Y-0.065
G01 Z-4
G00 Z3
G00 X0.136 Y-0.096
G01 Z-4
G00 Z3
G00 X0.136 Y-0.103
G01 Z-4
G00 Z3
G00 X0.145 Y-0.056
G01 Z-4
G00 Z3
G00 X0.145 Y-0.061
G01 Z-4
G00 Z3
G00 X0.145 Y-0.054
G01 Z-4
G00 Z3
G00 X0.147 Y-0.084
G01 Z-4
G00 Z3
G00 X0.147 Y-0.059
G01 Z-4
G00 Z3
G00 X0.15 Y-0.072
G01 Z-4
G00 Z3
G00 X0.15 Y-0.058
G01 Z-4
G00 Z3
G00 X0.155 Y-0.096
G01 Z-4
G00 Z3
G00 X0.156 Y-0.086
G01 Z-4
G00 Z3
G00 X0.156 Y-0.094
G01 Z-4
G00 Z3
G00 X0.156 Y-0.073
G01 Z-4
G00 Z3
G00 X0.156 Y-0.081
G01 Z-4
G00 Z3
G00 X0.157 Y-0.064
G01 Z-4
G00 Z3
G00 X0.158 Y-0.091
G01 Z-4
G00 Z3
G00 X0.162 Y-0.076
G01 Z-4
G00 Z3
G00 X0.163 Y-0.066
G01 Z-4
G00 Z3
G00 X0.163 Y-0.081
G01 Z-4
G00 Z3
G00 X0.163 Y-0.088
G01 Z-4
G00 Z3
G00 X0.164 Y-0.065
G01 Z-4
G00 Z3
G00 X0.164 Y-0.081
G01 Z-4
G00 Z3
G00 X0.164 Y-0.09
G01 Z-4
G00 Z3
G00 X0.164 Y-0.099
G01 Z-4
G00 Z3
G00 X0.165 Y-0.061
G01 Z-4
G00 Z3
G00 X0.166 Y-0.063
G01 Z-4
G00 Z3
G00 X0.166 Y-0.072
G01 Z-4
G00 Z3
G00 X0.168 Y-0.076
G01 Z-4
G00 Z3
G00 X0.169 Y-0.077
G01 Z-4
G00 Z3
G00 X0.17 Y-0.086
G01 Z-4
G00 Z3
G00 X0.17 Y-0.076
G01 Z-4
G00 Z3
G00 X0.171 Y-0.087
G01 Z-4
G00 Z3
G00 X0.172 Y-0.075
G01 Z-4
G00 Z3
G00 X0.173 Y-0.072
G01 Z-4
G00 Z3
G00 X0.173 Y-0.094
G01 Z-4
G00 Z3
G00 X0.173 Y-0.096
G01 Z-4
G00 Z3
G00 X0.175 Y-0.086
G01 Z-4
G00 Z3
G00 X0.177 Y-0.07
G01 Z-4
G00 Z3
G00 X0.188 Y-0.093
G01 Z-4
G00 Z3
G00 X0.188 Y-0.097
G01 Z-4
G00 Z3
G00 X0.192 Y-0.072
G01 Z-4
G00 Z3
G00 X0.25 Y-0.054
G01 Z-4
G00 Z3
G00 X0.252 Y-0.068
G01 Z-4
G00 Z3
M05
T2 (ToolChange, ToolNum: 2, Drill Dia:0.5)
M6
M03
G00 X0.07 Y-0.055
G01 Z-4
G00 Z3
M05
T3 (ToolChange, ToolNum: 3, Drill Dia:0.8)
M6
M03
G00 X0.065 Y-0.111
G01 Z-4
G00 Z3
G00 X0.065 Y-0.113
G01 Z-4
G00 Z3
G00 X0.058 Y-0.111
G01 Z-4
G00 Z3
G00 X0.058 Y-0.113
G01 Z-4
G00 Z3
M05
T4 (ToolChange, ToolNum: 4, Drill Dia:0.95)
M6
M03
G00 X0.153 Y-0.108
G01 Z-4
G00 Z3
G00 X0.156 Y-0.108
G01 Z-4
G00 Z3
G00 X0.158 Y-0.108
G01 Z-4
G00 Z3
G00 X0.161 Y-0.108
G01 Z-4
G00 Z3
G00 X0.163 Y-0.108
G01 Z-4
G00 Z3
G00 X0.166 Y-0.108
G01 Z-4
G00 Z3
G00 X0.168 Y-0.108
G01 Z-4
G00 Z3
G00 X0.171 Y-0.108
G01 Z-4
G00 Z3
G00 X0.173 Y-0.108
G01 Z-4
G00 Z3
G00 X0.176 Y-0.108
G01 Z-4
G00 Z3
G00 X0.178 Y-0.108
G01 Z-4
G00 Z3
G00 X0.181 Y-0.108
G01 Z-4
G00 Z3
G00 X0.183 Y-0.108
G01 Z-4
G00 Z3
G00 X0.186 Y-0.108
G01 Z-4
G00 Z3
M05
T5 (ToolChange, ToolNum: 5, Drill Dia:1)
M6
M03
G00 X0.193 Y-0.076
G01 Z-4
G00 Z3
G00 X0.193 Y-0.079
G01 Z-4
G00 Z3
G00 X0.193 Y-0.081
G01 Z-4
G00 Z3
G00 X0.193 Y-0.084
G01 Z-4
G00 Z3
G00 X0.193 Y-0.086
G01 Z-4
G00 Z3
G00 X0.193 Y-0.089
G01 Z-4
G00 Z3
G00 X0.037 Y-0.077
G01 Z-4
G00 Z3
G00 X0.037 Y-0.08
G01 Z-4
G00 Z3
G00 X0.037 Y-0.088
G01 Z-4
G00 Z3
G00 X0.037 Y-0.091
G01 Z-4
G00 Z3
M05
T6 (ToolChange, ToolNum: 6, Drill Dia:1.1)
M6
M03
G00 X0.059 Y-0.104
G01 Z-4
G00 Z3
G00 X0.061 Y-0.104
G01 Z-4
G00 Z3
G00 X0.064 Y-0.104
G01 Z-4
G00 Z3
M05
T7 (ToolChange, ToolNum: 7, Drill Dia:1.5)
M6
M03
G00 X0.17 Y-0.048
G01 Z-4
G00 Z3
G00 X0.176 Y-0.048
G01 Z-4
G00 Z3
G00 X0.181 Y-0.048
G01 Z-4
G00 Z3
G00 X0.23 Y-0.048
G01 Z-4
G00 Z3
G00 X0.236 Y-0.048
G01 Z-4
G00 Z3
G00 X0.241 Y-0.048
G01 Z-4
G00 Z3
G00 X0.11 Y-0.048
G01 Z-4
G00 Z3
G00 X0.116 Y-0.048
G01 Z-4
G00 Z3
G00 X0.121 Y-0.048
G01 Z-4
G00 Z3
G00 X0.05 Y-0.048
G01 Z-4
G00 Z3
G00 X0.056 Y-0.048
G01 Z-4
G00 Z3
G00 X0.061 Y-0.048
G01 Z-4
G00 Z3
M05
T5 (ToolChange, ToolNum: 5, Drill Dia:1)
M6
M03
G00 X0.036 Y-0.103
G01 Z-4
G00 Z3
G00 X0.038 Y-0.108
G01 Z-4
G00 Z3
G00 X0.042 Y-0.103
G01 Z-4
G00 Z3
M05
T0
M6
M03
G00 Z3
G00 X0 Y0
M05 (Stop spindle)
M02 (Program End)

